proprietary/assets/icons/activiteiten/slapend-persoon.svg

<svg height="64" viewBox="0 0 64 64" width="64" xmlns="http://www.w3.org/2000/svg"><path d="m0 0h64v64h-64z" fill="none"/><path d="m57.542 16.0002c-1.5259 0-2.542.6051-2.542 1.9998v14h-49c-1.1046 0-2 .8954-2 2v14h5v-8h46v8h5v-30c0-1.371-1-1.9998-2.458-1.9998z"/><path d="m46.3218 28.7108c1.0983-.9001 2.8746-2.0042 5.2516-2.3866.683-1.4433.3596-2.8303-.869-3.9415-1.6921-1.5303-3.6957-1.1471-5.2504.5721-1.6381 1.8112-1.6077 3.6964.0414 5.1878.2667.2411.5447.4188.8264.5682z"/><path d="m41.2857 23.5c-.9286-1.5714-2.2857-2.5-4.2857-2.5-9.408 0-24.7617 2.912-27 3.8571-3.2143 1.3571-3.8571 3.6429-3.8571 5.1429h36.8641s-.8424-5.0126-1.7213-6.5z"/></svg>

<?xml version="1.0" encoding="utf-8"?>
<!-- Generator: Adobe Illustrator 19.1.0, SVG Export Plug-In . SVG Version: 6.00 Build 0)  -->
<svg version="1.2" baseProfile="tiny" xmlns="http://www.w3.org/2000/svg" xmlns:xlink="http://www.w3.org/1999/xlink" x="0px"
	 y="0px" width="64px" height="64px" viewBox="0 0 64 64" xml:space="preserve">
<g id="Box">
	<rect fill="none" width="64" height="64"/>
</g>
<g id="Icon">
	<g>
		<path d="M57.542,16.0002C56.0161,16.0002,55,16.6053,55,18v14H6c-1.1046,0-2,0.8954-2,2v14h5v-8h46v8h5V18
			C60,16.629,59,16.0002,57.542,16.0002z"/>
		<path d="M46.3218,28.7108c1.0983-0.9001,2.8746-2.0042,5.2516-2.3866c0.683-1.4433,0.3596-2.8303-0.869-3.9415
			c-1.6921-1.5303-3.6957-1.1471-5.2504,0.5721c-1.6381,1.8112-1.6077,3.6964,0.0414,5.1878
			C45.7621,28.3837,46.0401,28.5614,46.3218,28.7108z"/>
		<path d="M41.2857,23.5C40.3571,21.9286,39,21,37,21c-9.408,0-24.7617,2.912-27,3.8571C6.7857,26.2142,6.1429,28.5,6.1429,30
			H43.007C43.007,30,42.1646,24.9874,41.2857,23.5z"/>
	</g>
</g>
</svg>
